X: 55
T:Gerry Cronin's Reel
M:2/2
L:1/8
R:Reel
D:Siona, "Launching the Boat"
Z:Robert Greenway, 13/1/1999
K:C
c2ec AGED|C~A,3 G,A,CD|EGcd ecdc|Addc dfed|
c2Bc AGED|C~A,3 G,A,CD|EGce dBcA|1 GEDG EC,EG:|2 GEDB, C2EG|
|:c2gc acgc|fcec dcBc|Gc~c2 Gcea|gece d2eg|
a~e3 gede|cdec dcAG|EGce dBcA|1 GEDG EC,EG:|2 GEDB, C2EG||
<end>
<start>
